X: 22270
T: La Molinera
R: polka
M: 2/4
K: Bminor
|:f2 f2|ef ed|=cB A2|f2 f2|ce dc|B4|
e2 ed|cd cB|cB AB|c2 cB|AB AG|1 F4:|2 F3A||
|:B2 e2|ed cB|cB Ac|d2 fg|fe dc|d4|
a2 fe|d2 ef|e2 c2|dd cB|cc BA|B4:|

